Newaita/actions/16/view-media-playlist.svg

<svg height="16" viewBox="0 0 16 16" width="16" xmlns="http://www.w3.org/2000/svg"><g fill="#424242"><path d="m2.976562 1.449219c-.914062 0-1.652343.738281-1.652343 1.652343 0 .917969.738281 1.652344 1.652343 1.652344.917969 0 1.652344-.734375 1.652344-1.652344 0-.914062-.734375-1.652343-1.652344-1.652343zm0 0"/><path d="m14.222656 3.761719h-8.269531c-.183594 0-.332031-.144531-.332031-.328125v-.664063c0-.179687.148437-.328125.332031-.328125h8.269531c.183594 0 .332032.148438.332032.328125v.664063c0 .183594-.148438.328125-.332032.328125zm0 0"/><path d="m2.976562 6.410156c-.914062 0-1.652343.738282-1.652343 1.652344 0 .917969.738281 1.65625 1.652343 1.65625.917969 0 1.652344-.738281 1.652344-1.65625 0-.914062-.734375-1.652344-1.652344-1.652344zm0 .660156c.550782 0 .992188.441407.992188.992188s-.441406.992188-.992188.992188c-.550781 0-.992187-.441407-.992187-.992188s.441406-.992188.992187-.992188zm0 0"/><path d="m14.222656 8.726562h-8.269531c-.183594 0-.332031-.148437-.332031-.332031v-.660156c0-.183594.148437-.332031.332031-.332031h8.269531c.183594 0 .332032.148437.332032.332031v.660156c0 .183594-.148438.332031-.332032.332031zm0 0"/><path d="m2.976562 11.371094c-.914062 0-1.652343.738281-1.652343 1.652344 0 .917968.738281 1.65625 1.652343 1.65625.917969 0 1.652344-.738282 1.652344-1.65625 0-.914063-.734375-1.652344-1.652344-1.652344zm0 .660156c.550782 0 .992188.445312.992188.992188 0 .550781-.441406.992187-.992188.992187-.550781 0-.992187-.441406-.992187-.992187 0-.546876.441406-.992188.992187-.992188zm0 0"/><path d="m14.222656 13.6875h-8.269531c-.183594 0-.332031-.148438-.332031-.332031v-.660157c0-.183593.148437-.332031.332031-.332031h8.269531c.183594 0 .332032.148438.332032.332031v.660157c0 .183593-.148438.332031-.332032.332031zm0 0"/></g></svg>

<svg xmlns="http://www.w3.org/2000/svg" xmlns:xlink="http://www.w3.org/1999/xlink" width="16px" height="16px" viewBox="0 0 16 16" version="1.1">
<g id="surface1">
     <defs>
  <style id="current-color-scheme" type="text/css">
   .ColorScheme-Text { color:#424242; } .ColorScheme-Highlight { color:#eeeeee; }
  </style>
 </defs>
<path style="fill:currentColor" class="ColorScheme-Text" d="M 2.976562 1.449219 C 2.0625 1.449219 1.324219 2.1875 1.324219 3.101562 C 1.324219 4.019531 2.0625 4.753906 2.976562 4.753906 C 3.894531 4.753906 4.628906 4.019531 4.628906 3.101562 C 4.628906 2.1875 3.894531 1.449219 2.976562 1.449219 Z M 2.976562 1.449219 "/>
     <defs>
  <style id="current-color-scheme" type="text/css">
   .ColorScheme-Text { color:#424242; } .ColorScheme-Highlight { color:#eeeeee; }
  </style>
 </defs>
<path style="fill:currentColor" class="ColorScheme-Text" d="M 14.222656 3.761719 L 5.953125 3.761719 C 5.769531 3.761719 5.621094 3.617188 5.621094 3.433594 L 5.621094 2.769531 C 5.621094 2.589844 5.769531 2.441406 5.953125 2.441406 L 14.222656 2.441406 C 14.40625 2.441406 14.554688 2.589844 14.554688 2.769531 L 14.554688 3.433594 C 14.554688 3.617188 14.40625 3.761719 14.222656 3.761719 Z M 14.222656 3.761719 "/>
     <defs>
  <style id="current-color-scheme" type="text/css">
   .ColorScheme-Text { color:#424242; } .ColorScheme-Highlight { color:#eeeeee; }
  </style>
 </defs>
<path style="fill:currentColor" class="ColorScheme-Text" d="M 2.976562 6.410156 C 2.0625 6.410156 1.324219 7.148438 1.324219 8.0625 C 1.324219 8.980469 2.0625 9.71875 2.976562 9.71875 C 3.894531 9.71875 4.628906 8.980469 4.628906 8.0625 C 4.628906 7.148438 3.894531 6.410156 2.976562 6.410156 Z M 2.976562 7.070312 C 3.527344 7.070312 3.96875 7.511719 3.96875 8.0625 C 3.96875 8.613281 3.527344 9.054688 2.976562 9.054688 C 2.425781 9.054688 1.984375 8.613281 1.984375 8.0625 C 1.984375 7.511719 2.425781 7.070312 2.976562 7.070312 Z M 2.976562 7.070312 "/>
     <defs>
  <style id="current-color-scheme" type="text/css">
   .ColorScheme-Text { color:#424242; } .ColorScheme-Highlight { color:#eeeeee; }
  </style>
 </defs>
<path style="fill:currentColor" class="ColorScheme-Text" d="M 14.222656 8.726562 L 5.953125 8.726562 C 5.769531 8.726562 5.621094 8.578125 5.621094 8.394531 L 5.621094 7.734375 C 5.621094 7.550781 5.769531 7.402344 5.953125 7.402344 L 14.222656 7.402344 C 14.40625 7.402344 14.554688 7.550781 14.554688 7.734375 L 14.554688 8.394531 C 14.554688 8.578125 14.40625 8.726562 14.222656 8.726562 Z M 14.222656 8.726562 "/>
     <defs>
  <style id="current-color-scheme" type="text/css">
   .ColorScheme-Text { color:#424242; } .ColorScheme-Highlight { color:#eeeeee; }
  </style>
 </defs>
<path style="fill:currentColor" class="ColorScheme-Text" d="M 2.976562 11.371094 C 2.0625 11.371094 1.324219 12.109375 1.324219 13.023438 C 1.324219 13.941406 2.0625 14.679688 2.976562 14.679688 C 3.894531 14.679688 4.628906 13.941406 4.628906 13.023438 C 4.628906 12.109375 3.894531 11.371094 2.976562 11.371094 Z M 2.976562 12.03125 C 3.527344 12.03125 3.96875 12.476562 3.96875 13.023438 C 3.96875 13.574219 3.527344 14.015625 2.976562 14.015625 C 2.425781 14.015625 1.984375 13.574219 1.984375 13.023438 C 1.984375 12.476562 2.425781 12.03125 2.976562 12.03125 Z M 2.976562 12.03125 "/>
     <defs>
  <style id="current-color-scheme" type="text/css">
   .ColorScheme-Text { color:#424242; } .ColorScheme-Highlight { color:#eeeeee; }
  </style>
 </defs>
<path style="fill:currentColor" class="ColorScheme-Text" d="M 14.222656 13.6875 L 5.953125 13.6875 C 5.769531 13.6875 5.621094 13.539062 5.621094 13.355469 L 5.621094 12.695312 C 5.621094 12.511719 5.769531 12.363281 5.953125 12.363281 L 14.222656 12.363281 C 14.40625 12.363281 14.554688 12.511719 14.554688 12.695312 L 14.554688 13.355469 C 14.554688 13.539062 14.40625 13.6875 14.222656 13.6875 Z M 14.222656 13.6875 "/>
</g>
</svg>
